!!!COM: Frescobaldi, Girolamo
!!!CDT: 1583///-1643
!!!ONM: No. 9
!!!OTL: No. 9: Canzon Seconda &agrave; 2 Bassi
!!!OPR: Canzoni da sonare a una, due, tre et quattro, libro primo
!!!PPP: Venezia
!!!PDT: 1634
!!!URL: http://icking-music-archive.org/ByComposer/Frescobaldi.html
!!!ONB: Andrea Friggi, ed.
**kern	**kern	**kern
!Basso ad Organo	!Basso Secondo	!Basso Primo
*staff3	*staff2	*staff1
*Icello	*Icello	*Icello
*clefF4	*clefF4	*clefF4
*k[]	*k[]	*k[]
*met(C)	*met(C)	*met(C)
*M4/4	*M4/4	*M4/4
*MM120	*MM120	*MM120
=1-	=1-	=1-
2A\	2A\	1r
4.AA/	4.AA/	.
8C/	8C/	.
=2	=2	=2
4BB/	4BB/	1r
4AA/	4AA/	.
4E\	4E\	.
4G\	4G\	.
=3	=3	=3
4F\	4F\	1r
8E\L	8E\L	.
8D\J	8D\J	.
4.C#/	4.C#/	.
8D\	8D\	.
=4	=4	=4
2E\	2E\	2E\
4.AA/	2A\	4.AA/
8C/	.	8C/
=5	=5	=5
4BB/	1r	4BB/
4AA/	.	4AA/
4E\	.	4E\
4G\	.	4G\
=6	=6	=6
4F\	1r	4F\
8E\L	.	8E\L
8D\J	.	8D\J
4.C#/	.	4.C#/
8D\	.	8D\
=7	=7	=7
2E\	2r	2E\
4AA/	4r	2AA/
8A\L	8A\L	.
8B\J	8B\J	.
=8	=8	=8
4c\	4c\	1r
4A\	4A\	.
4B-\	4B-\	.
4G\	4G\	.
=9	=9	=9
2A\	2A\	2A\
4.E\	2r	4.E\
8F\	.	8F\
=10	=10	=10
4E\	1r	4E\
4D\	.	4D\
4A\	.	4A\
4c\	.	4c\
=11	=11	=11
4B-\	1r	4B-\
8A\L	.	8A\L
8G\J	.	8G\J
4F\	.	4F\
4G\	.	4G\
=12	=12	=12
2E\	2r	2E\
[2D\	4r	2D\
.	8D\L	.
.	8E\J	.
=13	=13	=13
4D\]	8F/L	1r
.	8D/	.
4AA/	8AA/	.
.	8BB/J	.
4C/	4C/	.
8FF/L	8FF/L	.
8GG/J	8GG/J	.
=14	=14	=14
2AA/	2AA/	4r
.	.	8A\L
.	.	8B\J
2C/	2r	8c\L
.	.	8E\
.	.	8C\
.	.	8D\J
=15	=15	=15
2.E\	4r	2E\
.	8E\L	.
.	8F\J	.
.	8G\L	2r
.	8E\	.
4BB/	8BB\	.
.	8C\J	.
=16	=16	=16
2D\	2D\	2r
2E\	2E\	4r
.	.	4E\
=17	=17	=17
4.A\	1r	4.A\
8c\	.	8c\
4B\	.	4B\
4A\	.	4A\
=18	=18	=18
4G#\	4r	8G#\L
.	.	8A\
4E\	4E\	8B\
.	.	8G#\J
4.AA/	4.AA/	2A\
8C/	8C/	.
=19	=19	=19
4BB/	4BB/	2r
4AA/	4AA/	.
[2E\	2E\	4r
.	.	8E\L
.	.	8F\J
=20	=20	=20
4E\]	2r	8G\L
.	.	8E\
4BB/	.	8BB\
.	.	8C\J
4D\	4r	4D\
4AA/	8A\L	4AA/
.	8B\J	.
=21	=21	=21
4A\	8c\L	2AA/
.	8A\	.
8E\L	8E\	.
8F#\J	8F#\J	.
4G\	2G\	4r
4BB/	.	8BB/L
.	.	8C/J
=22	=22	=22
4D\	1r	8D/L
.	.	8C/
4AA/	.	8AA/
.	.	8BB/J
4C/	.	4C/
8FF/L	.	8FF/L
8GG/J	.	8GG/J
=23	=23	=23
2AA/	4r	2AA/
.	4A\	.
4.D\	4.D\	2r
8F\	8F\	.
=24	=24	=24
4E\	4E\	4r
4AA/	4AA/	8A\L
.	.	8B\J
4AA/	2A\	8c\L
.	.	8A\
8FF/L	.	8F\
8GG/J	.	8G\J
=25	=25	=25
[1AA	4r	2A\
.	8A\L	.
.	8B\J	.
.	8c#\L	[2AA/
.	8A\	.
.	8F\	.
.	8G\J	.
=26	=26	=26
2AA/]	4A\	2AA/]
.	8G\L	.
.	8F\J	.
2AA/	4E\	2AA/
.	4A\	.
=27	=27	=27
1D	1D	1D
=28	=28	=28
1D	1r	2r
.	.	2D\
=29	=29	=29
1G	1r	2.G\
.	.	4G\
=30	=30	=30
2F\	1r	2F\
2E\	.	2E\
=31	=31	=31
2.F\	1r	2.F\
8E\L	.	8E\L
8D\J	.	8D\J
=32	=32	=32
2C#/	1r	2C#/
2D\	.	2D\
=33	=33	=33
1BB-	1r	1BB-
=34	=34	=34
1AA	2r	1AA
.	2AA/	.
=35	=35	=35
1D	2.D\	1r
.	4D\	.
=36	=36	=36
2C/	2C/	1r
2BB/	2BB/	.
=37	=37	=37
2.C/	2.C/	1r
8BB/L	8BB/L	.
8AA/J	8AA/J	.
=38	=38	=38
2GG#/	2GG#/	1r
2AA/	2AA/	.
=39	=39	=39
1FF	1FF	1r
=40	=40	=40
1GG	1GG	1r
=41	=41	=41
1AA	1AA	1r
=42	=42	=42
*M3/2	*M3/2	*M3/2
1D	1.D	4D\
.	.	4E\
.	.	4F\
.	.	4G\
2D\	.	4A\
.	.	4B\
=43	=43	=43
2C/	1.r	2c\
2G\	.	2G\
2B-\	.	2B-\
=44	=44	=44
1A	4AA/	1A
.	4BB/	.
.	4C/	.
.	4D\	.
2E\	4E\	2r
.	4F\	.
=45	=45	=45
2G\	2G\	1.r
2E\	2E\	.
2AA/	2A\	.
=46	=46	=46
1D	4D\	2D\
.	4E\	.
.	4F\	2D\
.	4G\	.
2D\	4A\	2D\
.	4B\	.
=47	=47	=47
2C/	2c\	4C/
.	.	8D\L
.	.	8E\J
2F\	2A\	4F\
.	.	4E\
2D\	2d\	4D\
.	.	4C/
=48	=48	=48
2.G\	1G	4.BB/
.	.	8BB/
.	.	4AA/
4GG/	.	4GG/
4AA/	2r	4AA/
4BB/	.	4BB/
=49	=49	=49
2C/	1.r	2C/
1GG	.	1GG
=50	=50	=50
2C/	1.r	1C
2C/	.	.
2C/	.	2r
=51	=51	=51
1AA	2A\	4AA/
.	.	4BB/
.	2A\	4C/
.	.	4D\
2AA/	2A\	4E\
.	.	4F\
=52	=52	=52
2GG/	4G\	2G\
.	8A\L	.
.	8B\J	.
2EE/	4c\	2E\
.	4B\	.
2AA/	4c\	2AA/
.	4A\	.
=53	=53	=53
1D	4.D\	1D
.	8E\	.
.	4F\	.
.	4D\	.
2E\	2E\	2r
=54	=54	=54
1AA	1.AA	2A\
.	.	2A\
2A\	.	2A\
=55	=55	=55
2G\	1.r	4G\
.	.	8A\L
.	.	8B\J
2c\	.	4c\
.	.	4B\
2A\	.	4A\
.	.	4G\
=56	=56	=56
1F	1.r	2.F\
.	.	4E\
2D\	.	2D\
=57	=57	=57
*	*clefC4	*
1E	4E/	2E\
.	4F/	.
.	4G/	2E\
.	4A\	.
2E\	4B\	2E\
.	4c\	.
=58	=58	=58
2D\	2d\	4D\
.	.	8E\L
.	.	8F\J
2G\	2B\	4G\
.	.	4F\
2E\	2e\	4E\
.	.	4D\
=59	=59	=59
2C#/	2.A\	2C#/
2D\	.	2D\
.	4B\	.
4E\	2c\	4E\
4F\	.	4F\
=60	=60	=60
1G	4B\	1G
.	4c\	.
.	4B\	.
.	4A\	.
2GG/	4G/	2GG/
.	4F/	.
=61	=61	=61
*	*clefF4	*
1C	4E\	1C
.	4D\	.
.	4C/	.
.	4BB/	.
2AA/	2AA/	2r
=62	=62	=62
1EE	2.EE/	1.r
.	4FF/	.
2GG/	2GG/	.
=63	=63	=63
*met(C)	*met(C)	*met(C)
*M4/4	*M4/4	*M4/4
1C	1C	1r
=64	=64	=64
4c\	1r	4c\
8B\L	.	8B\L
8c\J	.	8c\J
4A\	.	4A\
8G\L	.	8G\L
8A\J	.	8A\J
=65	=65	=65
4F#\	4r	4F#\
8E\L	4c\	8E\L
8F#\J	.	8F#\J
4.G\	4B\	2G\
.	8G\L	.
8Fn\	8F\J	.
=66	=66	=66
4E\	4E\	4r
4C/	8C/L	4E\
.	8BB/J	.
2AA/	2AA/	4A\
.	.	8A\L
.	.	8G\J
=67	=67	=67
4F\	1r	4F\
8D/L	.	8D/L
8C/J	.	8C/J
4BB/	.	4BB/
4E\	.	4E\
=68	=68	=68
2AA/	2r	2AA/
4A\	4A\	2r
8G\L	8G\L	.
8A\J	8A\J	.
=69	=69	=69
*	*	*clefC4
4F#\	4F#\	4d\
8E\L	8E\L	8c\L
8F#\J	8F#\J	8d\J
4G\	4G\	4B\
8Fn\L	8Fn\L	8A\L
8G\J	8G\J	8B\J
=70	=70	=70
4E\	4E\	4c\
8D\L	8F\L	8B\L
8E\J	8G\J	8c\J
4F\	4A\	4A\
8E\L	8G\L	8G/L
8F\J	8A\J	8A/J
=71	=71	=71
2D\	2D\	4B\
.	.	2A\
2E\	2E\	.
.	.	4G#/
=72	=72	=72
*	*	*clefF4
4AA/	2AA/	4r
4A\	.	4A\
2F\	2r	4F\
.	.	8E\L
.	.	8D\J
=73	=73	=73
4C/	2r	4C/
8AA/L	.	8AA/L
8GG/J	.	8GG/J
4FF/	4r	4FF/
4GG/	4G\	4GG/
=74	=74	=74
2C/	4E\	2C/
.	8C/L	.
.	8BB/J	.
4AA/	4AA/	2r
4F\	8F\L	.
.	8E\J	.
=75	=75	=75
4D\	4D\	4D\
8C/L	8E\L	8C/L
8D/J	8F\J	8D/J
4BB/	4G\	4BB/
8AA/L	8F\L	8AA/L
8BB/J	8G\J	8BB/J
=76	=76	=76
4C/	4E\	4C/
8AA/L	8F\L	8AA/L
8GG/J	8G\J	8GG/J
4FF/	4A\	4FF/
4EE/	8G\L	4EE/
.	8A\J	.
=77	=77	=77
2FF/	4F\	8FF/L
.	.	8GG/
.	8E\L	8AA/
.	8D\J	8BB/J
2C/	8C\L	2C/
.	8D\	.
.	8E\	.
.	8F\J	.
=78	=78	=78
2GG/	4.G\	8GG/L
.	.	8AA/
.	.	8BB/
.	16F\LL	8C/J
.	16E\JJ	.
2D\	8D\L	4.D\
.	8E\	.
.	8F\	.
.	8G\J	16C/LL
.	.	16BB/JJ
=79	=79	=79
2AA/	4.A\	8AA/L
.	.	8BB/
.	.	8C/
.	16G\LL	8D/J
.	16F\JJ	.
2EE/	2E\	2E\
=80	=80	=80
1AA	1A	1AA
=81	=81	=81
*M6/4	*M6/4	*M6/4
2.A\	1.r	4A\
.	.	4G\
.	.	4A\
2.F#\	.	4F#\
.	.	4E\
.	.	4F#\
=82	=82	=82
4G\	1.r	4G\
4E\	.	4E\
4D\	.	4D\
4C/	.	4C/
4BB/	.	4BB/
4AA/	.	4AA/
=83	=83	=83
2.E\	4E\	2.EE/
.	4D\	.
.	4E\	.
4C#/	4C#/	2.r
4BB/	4BB/	.
4C#/	4C#/	.
=84	=84	=84
4D\	4D\	1.r
4BB/	4BB/	.
4AA/	4AA/	.
4GG/	4GG/	.
4AA/	4AA/	.
4BB/	4BB/	.
=85	=85	=85
2.C/	4C/	4c\
.	4D\	4B\
.	4E\	4c\
2.FF/	2.F\	4A\
.	.	4B\
.	.	4c\
=86	=86	=86
2.GG/	1.r	4B-\
.	.	4G\
.	.	4A\
2.GG/	.	4B-\
.	.	4A\
.	.	4G\
=87	=87	=87
4F\	4F\	2.F\
4E\	4E\	.
4F\	4F\	.
4D\	4D\	2.r
4E\	4E\	.
4F\	4F\	.
=88	=88	=88
2.C/	4C/	1.r
.	4E\	.
.	4F\	.
2.GG/	4G\	.
.	4F\	.
.	4E\	.
=89	=89	=89
4D\	2.D\	4D\
4C/	.	4C/
4D\	.	4D\
2.AA/	2.r	4AA/
.	.	4BB/
.	.	4C/
=90	=90	=90
2.AA/	2.r	4AA/
.	.	4GG/
.	.	4FF/
2.EE/	4c\	2.EE/
.	4B\	.
.	4c\	.
=91	=91	=91
2.FF/	4A\	2FF/
.	4G\	.
.	4A\	4FF/
2.GG/	4B-\	2GG/
.	4A\	.
.	4B-\	4GG/
=92	=92	=92
2AA/	4G\	2AA/
.	4A\	.
4EE/	4B\	4EE/
2.GG/	2.G\	2.GG/
=93	=93	=93
*met(C)	*met(C)	*met(C)
*M4/4	*M4/4	*M4/4
1C	1C	1C
=94	=94	=94
1G	2r	1r
.	2G\	.
=95	=95	=95
1A	1A	1r
=96	=96	=96
1B-	2.B-\	1r
.	8A\L	.
.	8G\J	.
=97	=97	=97
2F#\	2F#\	1r
2G\	2G\	.
=98	=98	=98
1E-	1E-	1r
=99	=99	=99
1D	1D	2r
.	.	2D\
=100	=100	=100
1En	1r	1E
=101	=101	=101
1F	1r	2.F\
.	.	8E\L
.	.	8D\J
=102	=102	=102
2C#/	1r	2C#/
2D\	.	2D\
=103	=103	=103
1BB-	1r	1BB-
=104	=104	=104
2.AA/	1r	2.AA/
4BB/	.	4BB/
=105	=105	=105
1C	1r	1C
=106	=106	=106
2.FF/	1r	2.FF/
4GG/	.	4GG/
=107	=107	=107
2AA/	1r	2AA/
2EE/	.	2EE/
=108	=108	=108
2AA/	2r	1AA
4A\	4A\	.
8E\L	8E\L	.
8A\J	8A\J	.
=109	=109	=109
4c\	8.c\L	1r
.	16c\Jk	.
8B\L	8B\L	.
8A\J	8A\J	.
8G\L	8G\L	.
8E\J	16E\L	.
.	16F\JJ	.
4G\	8G\L	.
.	8G\J	.
=110	=110	=110
4F\	8F\L	2r
.	16G\L	.
.	16F\JJ	.
8E\L	8E\L	.
8D\J	8D\J	.
2C#/	4.C#/	4A\
.	.	8E\L
.	8AA/	8A\J
=111	=111	=111
2D\	2D\	8.D\L
.	.	16F\Jk
.	.	8E\L
.	.	8D\J
8Cn/L	2r	8C/L
8AA/J	.	16AA/L
.	.	16BB/JJ
4C/	.	8C/L
.	.	8C/J
=112	=112	=112
4BB-/	2r	4BB-/
8AA/L	.	8AA/L
8GG/J	.	8GG/J
2AA/	4A\	2AA/
.	8E\L	.
.	8A\J	.
=113	=113	=113
4.D\	8.D\L	2D\
.	16B-\Jk	.
.	8A\L	.
8E\	8G\J	.
8F\L	8F\L	2r
8D\J	16D\L	.
.	16E\JJ	.
4F\	8F\L	.
.	8F\J	.
=114	=114	=114
4E\	4E\	2r
4AA/	4A\	.
2D\	2D\	4d\
.	.	8A\L
.	.	8d\J
=115	=115	=115
2C/	1r	8.c\L
.	.	16c\Jk
.	.	8B\L
.	.	8A\J
8G\L	.	8G\L
8E\J	.	16E\L
.	.	16F\JJ
4G\	.	8G\L
.	.	8G\J
=116	=116	=116
4F\	2r	8F\L
.	.	16G\L
.	.	16F\JJ
8E\L	.	8E\L
8D\J	.	8D\J
4E\	4E\	2E\
4EE/	8BB/L	.
.	8E/J	.
=117	=117	=117
2AA/	2AA/	8r
.	.	8A\L
.	.	8E\
.	.	8A\J
2D\	8r	2D\
.	16D\LL	.
.	16E\JJ	.
.	8F\L	.
.	8F\J	.
=118	=118	=118
4E\	8E\L	2r
.	16F\L	.
.	16E\JJ	.
8D/L	8D/L	.
8C/J	8C/J	.
4G\	2GG/	8r
.	.	8G\L
8F\L	.	8F\
8E\J	.	8E\J
=119	=119	=119
8F\L	2r	8F\L
8D\J	.	16D\L
.	.	16E\JJ
4F\	.	8F\L
.	.	8F\J
8E\L	8r	8E\L
8C\	8c\L	8C\
8E\	8B\	8E\
8F\J	8A\J	8F\J
=120	=120	=120
4G\	8G\L	4G\
.	16BB\L	.
.	16C\JJ	.
4D\	8D\L	4D\
.	8D\J	.
8C/L	8C/L	8r
8AA/	8AA/	8A\L
8C/	8C/	8G\
8D/J	8D/J	8F\J
=121	=121	=121
2E\	2E\	8E\L
.	.	16E\L
.	.	16F\JJ
.	.	8G\L
.	.	8G\J
2F\	2r	4F\
.	.	8E\L
.	.	8D\J
=122	=122	=122
2C#/	2r	4.C#/
.	.	8C#/
2D\	4D\	2D\
.	8AA/L	.
.	8D/J	.
=123	=123	=123
2GG/	8.G\L	1r
.	16G\Jk	.
.	8F\L	.
.	8E\J	.
4C/	8F\L	.
.	16D\L	.
.	16E\JJ	.
4F\	8F\L	.
.	8F\J	.
=124	=124	=124
8E/L	8E\L	8r
8C/	8C\	8C/L
8BB/	8E\	8BB/
8AA/J	8F\J	8AA/J
4GG/	4G\	8GG/L
.	.	16BB/L
.	.	16C/JJ
4D\	4D\	8D\L
.	.	8D\J
=125	=125	=125
8C/L	8r	8C/L
8AA/	8A\L	8AA/
8C/	8G\	8C/
8D/J	8F#\J	8D/J
2E\	4G#\	2E\
.	[4E\	.
=126	=126	=126
1AA	16E/LL]	[4AA/
.	16D/	.
.	16E/	.
.	16AA/JJ	.
.	4.A\	16AA/LL]
.	.	16BB/
.	.	16C/
.	.	16AA/JJ
.	.	[2A\
.	16E\LL	.
.	16F\JJ	.
.	8C\L	.
.	16D\L	.
.	16E\JJ	.
=127	=127	=127
[1AA	[2AA/	8A\L]
.	.	16E\L
.	.	16F\JJ
.	.	8C\L
.	.	16D\L
.	.	16E\JJ
.	16AA/LL]	[2AA/
.	16BB/	.
.	16C/	.
.	16AA/JJ	.
.	16A\LL	.
.	16B\	.
.	16c\	.
.	16G#\JJ	.
=128	=128	=128
2AA/]	16A\LL	2AA/]
.	16E\	.
.	16F\	.
.	16D\JJ	.
.	16E/LL	.
.	16BB/	.
.	16C/	.
.	16AA/JJ	.
2EE/	2E\	2EE/
=129	=129	=129
0AA	0AA	0AA
==	==	==
*-	*-	*-
!!!ENC: Craig Stuart Sapp
!!!END: 2004/12/14/
